48x48/apps/org.zulip.Zulip.svg

<svg height="48" width="48" xmlns="http://www.w3.org/2000/svg"><circle cx="24" cy="25" opacity=".2" r="20"/><circle cx="24" cy="24" fill="#92d6c1" r="20"/><path d="m14.5 14 2.5 5h9.146l-11.646 12 2.5 5h16.5l-2.5-5h-9.146l11.646-12-2.5-5z" opacity=".1"/><path d="m24 4a20 20 0 0 0 -20 20 20 20 0 0 0 .021.582 20 20 0 0 1 19.979-19.582 20 20 0 0 1 19.979 19.418 20 20 0 0 0 .021-.418 20 20 0 0 0 -20-20z" fill="#f4f4f7" opacity=".2"/><path d="m14.5 13h16.5l2.5 5h-16.5z" fill="#1b4f2f"/><path d="m14.5 30 16.5-17 2.5 5-16.5 17z" fill="#207344"/><path d="m14.5 30h16.5l2.5 5h-16.5z" fill="#219053"/></svg>

<svg xmlns="http://www.w3.org/2000/svg" width="48" height="48"><circle style="opacity:.2" cx="24" cy="25" r="20"/><circle style="fill:#92d6c1" cx="24" cy="24" r="20"/><path style="opacity:.1" d="m14.5 14 2.5 5h9.146L14.5 31l2.5 5h16.5L31 31h-9.146L33.5 19 31 14z"/><path style="opacity:.2;fill:#f4f4f7" d="M24 4A20 20 0 0 0 4 24a20 20 0 0 0 .021.582A20 20 0 0 1 24 5a20 20 0 0 1 19.979 19.418A20 20 0 0 0 44 24 20 20 0 0 0 24 4z"/><path style="fill:#1b4f2f" d="M14.5 13H31l2.5 5H17z"/><path style="fill:#207344" d="M14.5 30 31 13l2.5 5L17 35z"/><path style="fill:#219053" d="M14.5 30H31l2.5 5H17z"/></svg>
